Adwaita++-Dark/actions/16/kt-magnet.svg

<svg height="16" viewBox="0 0 16 16" width="16" xmlns="http://www.w3.org/2000/svg">
  <path d="m8 1.5c-2.7527 0-5 2.2473-5 5v8h2v-8c0-1.6793 1.3207-3 3-3s3 1.3207 3 3v8h2v-8c0-2.7527-2.2473-5-5-5z" fill="#e6ddff"/>
</svg>

<svg xmlns="http://www.w3.org/2000/svg" width="16" height="16" viewBox="0 0 16 16">
 <defs>
  <style id="current-color-scheme" type="text/css">
   .ColorScheme-Text { color:#E6DDFF; } .ColorScheme-Highlight { color:#4285f4; }
  </style>
 </defs>
 <path style="fill:currentColor" class="ColorScheme-Text" d="M 8 1.5 C 5.2473 1.5 3 3.7473 3 6.5 L 3 14.5 L 5 14.5 L 5 6.5 C 5 4.8207 6.3207 3.5 8 3.5 C 9.6793 3.5 11 4.8207 11 6.5 L 11 14.5 L 13 14.5 L 13 6.5 C 13 3.7473 10.7527 1.5 8 1.5 z"/>
</svg>
